X:1
T:Perche gelato core
T:Tiburtio Massaino
T:Perche gelato core
C:Tiburtio Massaino
%%score [ 1 2 3 4 ]
L:1/8
Q:1/4=120
M:4/2
K:F
V:1 treble nm="Soprano" snm="S"
V:2 alto1 nm="Alto" snm="A"
V:3 alto2 nm="Tenor" snm="T"
V:4 tenor nm="Bass" snm="B"
V:1
 z16 |[K:Eb] z4 F4 G6 B2 | A4 G4 F8 | G4 z2 F2 G3 B A2 G2 | F4 G4 z2 B2 B3 B | c3 B A4 G8 | %6
w: |Per- che ge-|la- to co-|re Non fo- stu ar- di- to a|cor- re, Non fo- stu ar-|di- to a cor- re,|
 z2 e4 d2 c4 B2 B2 | c4 d2 e4 d3 c c2- | c2 B2 c4 z8 | z4 d4 e8 | d4 z2 B2 c6 A2 | G8 F8 | %12
w: Dai me- la- ti co-|ral- li un ba- cio an- * cho-|* * ra,|un ba-|cio un ba- cio an-|cho- ra,|
 z4 D8 G4- | G2 F2 E4 D4 C2 c2- | c2 B4 G2 c4 B4 | z2 B2 =A4 B2 B4 c2- | cB B3 =A/G/ A2 B8 | %17
w: La te-|* pi- dez- za tua mi|_ strug- ge e ac- co- ra,|mi strug- ge e ac- co- *|* * * * * * ra,|
 z4 B4 B6 B2 | B4 c4 B4 B4 | z4 c4 B4 A2 G2- | G2 F2 G4 G2 e4 d2- | d2 c2 B4 A4 G4- | %22
w: Che sai co-|me il bel fio- re,|Dal de- str'o- rec-|* chio tor- re, Dal de-|* str'o- rec- chio tor-|
 G4 G4 z2 c4 c2 | e4 c2 B2 c2 e2 e2 d2 | c8 d4 G4- | G2 =A2 B4 c2 d2 e4- | e2 dc d4 G4 c2 B2 | %27
w: * re, Ti per-|mes- se il mio sol che m'in- a-|mo- ra, Por-|* ti an- chor non t'ha- ves-|* * * * se i la- *|
 A2 G2 A8 G4 | c4 B4 z4 B4 | G4 E4 F4 G4 | A8 G4 B4- | B4 B6 B2 c4- | c4 B4 f8 | B8 z8 | %34
w: * * * bri al'|ho- ra, Vil|ti- mo- ro- so|co- re, Vil|_ ti- mo- ro-|* so co-|re,|
 c3 d e4 d3 e f4 | z4 B3 c d4 c3 d | e8 z4 B4 | B4 B4 c8 | B4 e4 c4 c4 | B16 | B16 |] %41
w: Mer- to sia del tu a- mor,|Mer- to sia del tu a-|mor ca-|du- to fio-|re, ca- du- to|fio-|re.|
V:2
 z16 |[K:Eb][K:treble] z4 D4 E6 D2 | F4 B,4 B,8 | B,4 z2 D2 E3 D F2 B,2 | B,4 B,2 E2 D6 G2 | %5
w: |Per- che ge-|la- to co-|re Non fo- stu ar- di- to a|cor- re, Non fo- stu ar-|
 F2 E2 F4 B,2 E4 D2 | C4 B,2 B,2 E3 F G4 | E4 z2 G2 A4 G4 | z4 E4 F4 D2 E2- | EDEF GA B4 AG A2 G2 | %10
w: di- to a cor- re, Dai me-|la- ti co- ral- * *|li un ba- cio|un ba- cio an- cho-||
 B8 E4 z2 c2 | c8 =A8 | z8 B8 | G6 A2 B4 A4 | G8 C4 E4- | E2 D2 C4 B,2 F4 F2- | F2 F2 F8 F4 | %17
w: * ra, an-|cho- ra,|La|te- pi- dez- za|tua mi strug-|* ge e ac- co- ra, mi strug-|* ge e ac- co- ra,|
 z4 G4 G6 F2 | G4 A4 G4 F2 B2- | B2 A4 G2 F4 E2 D2- | D2 C2 z2 C4 G4 G2 | F4 G4 E4 E4 | %22
w: Che sai co-|me il bel fio- re, Dal|_ de- str'o- rec- chio tor-|* re, Dal de- str'o-|rec- chio tor- re,|
 D4 D2 E4 F4 A2 | G6 E2 G3 =A B4- | B2 =AG A4 B4 E4- | E2 E2 D4 E2 F2 G4- | G4 F4 E2 D2 E4- | %27
w: Ti per- mes- se il mio|sol che m'in- a- mo-|* * * * ra, Por-|* ti an- chor non t'ha- ves-|* se i la- * *|
 E2 C4 F4 ED E4 | F8 z4 E4- | E4 C6 D2 E4- | E4 D4 E8 | D4 z2 B2 G4 E4 | F4 G4 A8 | G8 z4 F3 G | %34
w: * bri al' ho- * * *|ra, Vil|_ ti- mo- ro-|* so co-|re, Vil ti- mo-|ro- so co-|re, Mer- to|
 A4 G3 A B4 z4 | E3 F G4 F3 G A4 | G4 A8 G4 | F4 G2 G2 E6 F2 | G2 A2 B8 A4 | G6 FE F8 | G16 |] %41
w: sia del tu a- mor,|Mer- to sia del tu a- mor|ca- du- to|fio- re, ca- du- *|* * * to|fio- * * *|re.|
V:3
 z16 |[K:Eb][K:treble-8] z4 B4 B6 B2 | c3 d e6 dc d4 | e4 z2 B2 B3 B cd e2- | e2 d2 e4 z4 g4 | %5
w: |Per- che ge-|la- to co- * * *|re Non fo- stu ar- di- to a cor-|* * re, Non|
 c6 d2 e2 B2 BcdB | e3 f g4 c2 e4 d2 | c4 B2 B2 c2 d2 e2 g2 | f4 g2 g2 a4 g4 | c4 B4 z8 | %10
w: fo- stu ar- di- to a cor- * * *|* * * re, Dai me-|la- ti co- ral- li un ba- cio an-|cho- ra, un ba- cio an-|cho- ra,|
 d4 e6 c2 f4- | f2 =ed e4 f8- | f8 z8 | z8 z4 f4 | d6 e2 f4 g4 | f8 d6 c2- | c2 d2 c4 d8 | %17
w: un ba- cio an- cho-|* * * * ra,|_|La|te- pi- dez- za|tua mi strug-|* ge e ac- co- ra,|
 z4 e4 e6 d2 | e4 A4 e4 B4 | z2 f4 e4 d2 c2 B2 | A4 G2 e4 c4 B2 | A4 G4 c4 c4 | G6 G2 A4 F2 F2 | %23
w: Che sai co-|me il bel fio- re,|Dal de- str'o- rec- chio|tor- re, Dal de- str'o-|rec- chio tor- re,|Ti per- mes- se il mio|
 c4 e4 c4 B4 | f8 B4 c4- | c2 c2 G4 c2 B2 e4- | e4 B4 c2 B2 A2 G2 | A4 F4 c8 | F4 B8 G4- | %29
w: sol che m'in- a-|mo- ra, Por-|* ti an- chor non t'ha- ves-|* se i la- * * *|* bri al' ho-|ra, Vil ti-|
 G2 G2 A8 G4 | F8 E8 | z4 e8 c4- | c2 d2 e8 d4 | e6 d2 c4 B4 | z16 | c3 d e4 d3 e f4 | %36
w: * mo- ro- so|co- re,|Vil ti-|* mo- ro- so|co- * * re,||Mer- to sia del tu a- mor,|
 e3 d c4 c3 d e2 B2 | d4 d2 e3 dcB c4 | d4 g4 f2 c2 f4- | f2 e2 e8 d4 | e16 |] %41
w: Mer- to sia del tu a- mor ca-|du- to fio- * * * *|re, ca- du- to fio-||re.|
V:4
 z16 |[K:Eb][K:bass] z4 B,4 E,6 G,2 | F,4 E,4 B,8 | E,4 z2 B,2 E,3 G, F,2 E,2 | %4
w: |Per- che ge-|la- to co-|re Non fo- stu ar- di- to a|
 B,4 E,4 z2 B,2 G,3 E, | A,3 G, F,4 E,2 G,4 B,2 | A,4 G,2 G,2 C4 G,4 | A,4 G,4 z4 C4 | %8
w: cor- re, Non fo- stu ar-|di- to a cor- re, Dai me-|la- ti co- ral- li un|ba- cio un|
 _D4 C4 z4 G,4 | A,4 G,4 C8 | B,4 E,4 A,4 F,4 | C8 F,8 | z4 B,4 G,6 A,2 | B,4 C4 B,4 F,4 | %14
w: ba- cio un|ba- cio an- cho-|ra, un ba- cio an-|cho- ra,|La te- pi-|dez- za tua mi|
 G,8 A,4 G,3 A, | B,4 F,4 z2 B,4 =A,2- | A,2 B,2 F,4 B,8 | z16 | z16 | z16 | z16 | z16 | z16 | %23
w: strug- ge e ac- co- *|* ra, mi strug-|* ge e ac- co- ra,|||||||
 z16 | z16 | z16 | z16 | z16 | z16 | z16 | z8 z4 B,4- | B,4 G,6 G,2 A,4- | A,4 G,4 F,8 | E,8 z8 | %34
w: |||||||Vil|_ ti- mo- ro-|* so co-|re,|
 z8 z4 F,3 G, | A,4 G,3 A, B,4 A,3 B, | C4 A,3 G, F,4 E,4 | B,4 G,4 A,8 | G,4 E,4 F,4 F,4 | B,16 | %40
w: Mer- to|sia del tu a- mor, Mer- to|sia del tu a- mor ca-|du- to fio-|re, ca- du- to|fio-|
 E,16 |] %41
w: re.|

